X: 17159
T: Hen Hunt, The
R: hornpipe
M: 4/4
K: Amajor
z e|f4 e3 c|B>A B2 c3 A|BA G2 A2 E2|E2 F4- FE|[M:3/4] E2 F2 A2|[M:4/4] f4 e3 c|
B>A B2 c3 c|dc B2 c2 A2|G2 F4- FE|[M:3/4] E2 F2 A2|[M:4/4] f4 e3 c|B>A B2 c3 A|
BA G2 A2 E2|E2 F4- FE|[M:3/4] E2 F2 A2|[M:4/4] f4 e3 a|g>f g2 a3 e|fe d2 e3 c|B2 A4||
E2|F>E D>C B,4|[M:2/4] G3 A|[M:4/4] G>F G2 A3 E|F>E D2 E2 C2|C2 B,4- B,E|F>E D>C B,4|
[M:2/4] G3 A [M:4/4] G>A B2 c3 A|BA G2 A3 F|G>F E2 F4-|F>E D>C B,4|[M:2/4] G3 A|
[M:4/4] G>F G2 A3 E|F>E D2 E2 C2|C2 B,4- B,E|F>E D>C B,4|[M:2/4] G3 A|
[M:4/4] G>A B2 c3 e|f>e d2 e3 c|B2 A6||

